Newaita-dark/devices/32/computer.svg

<?xml version="1.0" encoding="UTF-8"?>
<svg xmlns="http://www.w3.org/2000/svg" xmlns:xlink="http://www.w3.org/1999/xlink" width="32pt" height="32pt" viewBox="0 0 32 32" version="1.1">
<defs>
<linearGradient id="linear0" gradientUnits="userSpaceOnUse" x1="254" y1="233.5" x2="254" y2="254.666672" gradientTransform="matrix(0.062506,0,0,0.062506,-0.00000381506,13.438785)">
<stop offset="0" style="stop-color:rgb(0%,0%,0%);stop-opacity:0.27451;"/>
<stop offset="1" style="stop-color:rgb(0%,0%,0%);stop-opacity:0;"/>
</linearGradient>
<radialGradient id="radial0" gradientUnits="userSpaceOnUse" cx="450.908936" cy="189.579361" fx="450.908936" fy="189.579361" r="21.166656" gradientTransform="matrix(0.00000017417,-0.0781325,-0.140638,-0.000000101539,50.146084,63.595333)">
<stop offset="0" style="stop-color:rgb(0%,0%,0%);stop-opacity:0.313725;"/>
<stop offset="0.222222" style="stop-color:rgb(0%,0%,0%);stop-opacity:0.27451;"/>
<stop offset="1" style="stop-color:rgb(0%,0%,0%);stop-opacity:0;"/>
</radialGradient>
<radialGradient id="radial1" gradientUnits="userSpaceOnUse" cx="450.908936" cy="189.579361" fx="450.908936" fy="189.579361" r="21.166656" gradientTransform="matrix(-0.00000017417,0.0781325,0.140638,0.000000101539,-18.393049,-7.527479)">
<stop offset="0" style="stop-color:rgb(0%,0%,0%);stop-opacity:0.313725;"/>
<stop offset="0.222222" style="stop-color:rgb(0%,0%,0%);stop-opacity:0.27451;"/>
<stop offset="1" style="stop-color:rgb(0%,0%,0%);stop-opacity:0;"/>
</radialGradient>
<radialGradient id="radial2" gradientUnits="userSpaceOnUse" cx="450.908936" cy="189.579361" fx="450.908936" fy="189.579361" r="21.166656" gradientTransform="matrix(-0.00000017417,-0.0781325,0.140638,-0.000000101539,-18.393049,63.595333)">
<stop offset="0" style="stop-color:rgb(0%,0%,0%);stop-opacity:0.313725;"/>
<stop offset="0.222222" style="stop-color:rgb(0%,0%,0%);stop-opacity:0.27451;"/>
<stop offset="1" style="stop-color:rgb(0%,0%,0%);stop-opacity:0;"/>
</radialGradient>
<radialGradient id="radial3" gradientUnits="userSpaceOnUse" cx="450.908936" cy="189.579361" fx="450.908936" fy="189.579361" r="21.166656" gradientTransform="matrix(0.00000017417,0.0781325,-0.140638,0.000000101539,50.146082,-7.527479)">
<stop offset="0" style="stop-color:rgb(0%,0%,0%);stop-opacity:0.313725;"/>
<stop offset="0.222222" style="stop-color:rgb(0%,0%,0%);stop-opacity:0.27451;"/>
<stop offset="1" style="stop-color:rgb(0%,0%,0%);stop-opacity:0;"/>
</radialGradient>
<linearGradient id="linear1" gradientUnits="userSpaceOnUse" x1="840" y1="1455.118164" x2="840" y2="1695.118164" gradientTransform="matrix(0.016538,0,0,-0.016538,0.000000416706,52.098709)">
<stop offset="0" style="stop-color:rgb(38.039216%,38.039216%,38.039216%);stop-opacity:1;"/>
<stop offset="1" style="stop-color:rgb(25.882353%,25.882353%,25.882353%);stop-opacity:1;"/>
</linearGradient>
<linearGradient id="linear2" gradientUnits="userSpaceOnUse" x1="306.916656" y1="-25.791676" x2="305.954559" y2="-141.414581" gradientTransform="matrix(0.0753497,0,0,0.217412,-5.854013,33.641348)">
<stop offset="0" style="stop-color:rgb(36.078431%,41.960784%,75.294118%);stop-opacity:1;"/>
<stop offset="1" style="stop-color:rgb(47.45098%,52.54902%,79.607843%);stop-opacity:1;"/>
</linearGradient>
<linearGradient id="linear3" gradientUnits="userSpaceOnUse" x1="444.5" y1="185.875" x2="444.5" y2="148.833328" gradientTransform="matrix(0.5,0,0,0.571428,169.333206,-297.38092)">
<stop offset="0" style="stop-color:rgb(30.196078%,71.372549%,67.45098%);stop-opacity:1;"/>
<stop offset="1" style="stop-color:rgb(0%,58.823529%,53.333333%);stop-opacity:1;"/>
</linearGradient>
</defs>
<g id="surface1">
<path style=" stroke:none;fill-rule:nonzero;fill:url(#linear0);" d="M 7.9375 28.035156 L 23.816406 28.035156 L 23.816406 29.355469 L 7.9375 29.355469 Z M 7.9375 28.035156 "/>
<path style=" stroke:none;fill-rule:nonzero;fill:url(#radial0);" d="M 23.816406 28.035156 L 26.460938 28.035156 L 26.460938 26.710938 L 23.816406 26.710938 Z M 23.816406 28.035156 "/>
<path style=" stroke:none;fill-rule:nonzero;fill:url(#radial1);" d="M 7.9375 28.035156 L 5.292969 28.035156 L 5.292969 29.355469 L 7.9375 29.355469 Z M 7.9375 28.035156 "/>
<path style=" stroke:none;fill-rule:nonzero;fill:url(#radial2);" d="M 7.9375 28.035156 L 5.292969 28.035156 L 5.292969 26.710938 L 7.9375 26.710938 Z M 7.9375 28.035156 "/>
<path style=" stroke:none;fill-rule:nonzero;fill:url(#radial3);" d="M 23.816406 28.035156 L 26.460938 28.035156 L 26.460938 29.355469 L 23.816406 29.355469 Z M 23.816406 28.035156 "/>
<path style=" stroke:none;fill-rule:nonzero;fill:url(#linear1);" d="M 6.613281 28.035156 C 5.882812 28.035156 5.292969 27.445312 5.292969 26.710938 L 5.292969 24.066406 L 26.460938 24.066406 L 26.460938 26.710938 C 26.460938 27.445312 25.871094 28.035156 25.136719 28.035156 Z M 6.613281 28.035156 "/>
<path style=" stroke:none;fill-rule:nonzero;fill:rgb(0%,0%,0%);fill-opacity:0.235294;" d="M 6.613281 27.953125 C 5.882812 27.953125 5.292969 27.359375 5.292969 26.628906 L 5.292969 26.460938 C 5.292969 27.195312 5.882812 27.785156 6.613281 27.785156 L 25.136719 27.785156 C 25.871094 27.785156 26.460938 27.195312 26.460938 26.460938 L 26.460938 26.628906 C 26.460938 27.359375 25.871094 27.953125 25.136719 27.953125 Z M 6.613281 27.953125 "/>
<path style="fill:none;stroke-width:3;stroke-linecap:round;stroke-linejoin:miter;stroke:rgb(12.941177%,12.941177%,12.941177%);stroke-opacity:1;stroke-miterlimit:4;" d="M 105.802396 233.519669 C 94.116012 233.519669 84.679414 224.08307 84.679414 212.334192 L 84.679414 170.025732 L 423.334574 170.025732 L 423.334574 212.334192 C 423.334574 224.08307 413.897975 233.519669 402.149097 233.519669 Z M 105.802396 233.519669 " transform="matrix(0.062506,0,0,0.062506,0,13.438783)"/>
<path style=" stroke:none;fill-rule:nonzero;fill:url(#linear2);" d="M 3.308594 2.894531 L 28.445312 2.894531 C 29.175781 2.894531 29.769531 3.488281 29.769531 4.21875 L 29.769531 23.402344 C 29.769531 24.132812 29.175781 24.726562 28.445312 24.726562 L 3.308594 24.726562 C 2.578125 24.726562 1.984375 24.132812 1.984375 23.402344 L 1.984375 4.21875 C 1.984375 3.488281 2.578125 2.894531 3.308594 2.894531 Z M 3.308594 2.894531 "/>
<path style="fill-rule:nonzero;fill:url(#linear3);stroke-width:3;stroke-linecap:round;stroke-linejoin:miter;stroke:rgb(12.941177%,12.941177%,12.941177%);stroke-opacity:1;stroke-miterlimit:4;" d="M 391.587605 -212.334192 C 397.39955 -212.334192 402.149097 -207.584645 402.149097 -201.7727 C 402.149097 -195.898261 397.39955 -191.148715 391.587605 -191.148715 C 385.713166 -191.148715 381.026114 -195.898261 381.026114 -201.7727 C 381.026114 -207.584645 385.713166 -212.334192 391.587605 -212.334192 Z M 391.587605 -212.334192 " transform="matrix(0.062506,0,0,-0.062506,0,13.438783)"/>
<path style=" stroke:none;fill-rule:nonzero;fill:rgb(100%,100%,100%);fill-opacity:0.392157;" d="M 3.308594 2.894531 C 2.574219 2.894531 1.984375 3.484375 1.984375 4.21875 L 1.984375 4.621094 C 1.984375 3.890625 2.574219 3.300781 3.308594 3.300781 L 28.445312 3.300781 C 29.179688 3.300781 29.769531 3.890625 29.769531 4.621094 L 29.769531 4.21875 C 29.769531 3.484375 29.179688 2.894531 28.445312 2.894531 Z M 3.308594 2.894531 "/>
<path style=" stroke:none;fill-rule:nonzero;fill:rgb(0%,0%,0%);fill-opacity:0.235294;" d="M 1.984375 22.960938 L 1.984375 23.402344 C 1.984375 24.136719 2.574219 24.726562 3.308594 24.726562 L 28.445312 24.726562 C 29.179688 24.726562 29.769531 24.136719 29.769531 23.402344 L 29.769531 22.960938 C 29.769531 23.691406 29.179688 24.28125 28.445312 24.28125 L 3.308594 24.28125 C 2.574219 24.28125 1.984375 23.691406 1.984375 22.960938 Z M 1.984375 22.960938 "/>
<path style=" stroke:none;fill-rule:nonzero;fill:rgb(0%,0%,0%);fill-opacity:1;" d="M 3.308594 2.800781 C 2.523438 2.800781 1.890625 3.4375 1.890625 4.21875 L 1.890625 23.402344 C 1.890625 24.1875 2.523438 24.820312 3.308594 24.820312 L 28.445312 24.820312 C 29.230469 24.820312 29.863281 24.1875 29.863281 23.402344 L 29.863281 4.21875 C 29.863281 3.4375 29.230469 2.800781 28.445312 2.800781 Z M 3.308594 2.988281 L 28.445312 2.988281 C 29.128906 2.988281 29.675781 3.535156 29.675781 4.21875 L 29.675781 23.402344 C 29.675781 24.085938 29.128906 24.632812 28.445312 24.632812 L 3.308594 24.632812 C 2.625 24.632812 2.078125 24.085938 2.078125 23.402344 L 2.078125 4.21875 C 2.078125 3.535156 2.625 2.988281 3.308594 2.988281 Z M 3.308594 2.988281 "/>
</g>
</svg>

<svg xmlns="http://www.w3.org/2000/svg" width="32pt" height="32pt" viewBox="0 0 32 32"><defs><linearGradient id="a" gradientUnits="userSpaceOnUse" x1="254" y1="233.5" x2="254" y2="254.667" gradientTransform="matrix(.0625 0 0 .0625 0 13.439)"><stop offset="0" stop-opacity=".275"/><stop offset="1" stop-opacity="0"/></linearGradient><radialGradient id="b" gradientUnits="userSpaceOnUse" cx="450.909" cy="189.579" fx="450.909" fy="189.579" r="21.167" gradientTransform="matrix(0 -.07813 -.14064 0 50.146 63.595)"><stop offset="0" stop-opacity=".314"/><stop offset=".222" stop-opacity=".275"/><stop offset="1" stop-opacity="0"/></radialGradient><radialGradient id="c" gradientUnits="userSpaceOnUse" cx="450.909" cy="189.579" fx="450.909" fy="189.579" r="21.167" gradientTransform="matrix(0 .07813 .14064 0 -18.393 -7.527)"><stop offset="0" stop-opacity=".314"/><stop offset=".222" stop-opacity=".275"/><stop offset="1" stop-opacity="0"/></radialGradient><radialGradient id="d" gradientUnits="userSpaceOnUse" cx="450.909" cy="189.579" fx="450.909" fy="189.579" r="21.167" gradientTransform="matrix(0 -.07813 .14064 0 -18.393 63.595)"><stop offset="0" stop-opacity=".314"/><stop offset=".222" stop-opacity=".275"/><stop offset="1" stop-opacity="0"/></radialGradient><radialGradient id="e" gradientUnits="userSpaceOnUse" cx="450.909" cy="189.579" fx="450.909" fy="189.579" r="21.167" gradientTransform="matrix(0 .07813 -.14064 0 50.146 -7.527)"><stop offset="0" stop-opacity=".314"/><stop offset=".222" stop-opacity=".275"/><stop offset="1" stop-opacity="0"/></radialGradient><linearGradient id="f" gradientUnits="userSpaceOnUse" x1="840" y1="1455.118" x2="840" y2="1695.118" gradientTransform="matrix(.01654 0 0 -.01654 0 52.099)"><stop offset="0" stop-color="#616161"/><stop offset="1" stop-color="#424242"/></linearGradient><linearGradient id="g" gradientUnits="userSpaceOnUse" x1="306.917" y1="-25.792" x2="305.955" y2="-141.415" gradientTransform="matrix(.07535 0 0 .21741 -5.854 33.641)"><stop offset="0" stop-color="#5c6bc0"/><stop offset="1" stop-color="#7986cb"/></linearGradient><linearGradient id="h" gradientUnits="userSpaceOnUse" x1="444.5" y1="185.875" x2="444.5" y2="148.833" gradientTransform="matrix(.5 0 0 .57143 169.333 -297.38)"><stop offset="0" stop-color="#4db6ac"/><stop offset="1" stop-color="#009688"/></linearGradient></defs><path d="M7.938 28.035h15.878v1.32H7.938zm0 0" fill="url(#a)"/><path d="M23.816 28.035h2.645v-1.324h-2.645zm0 0" fill="url(#b)"/><path d="M7.938 28.035H5.293v1.32h2.644zm0 0" fill="url(#c)"/><path d="M7.938 28.035H5.293v-1.324h2.644zm0 0" fill="url(#d)"/><path d="M23.816 28.035h2.645v1.32h-2.645zm0 0" fill="url(#e)"/><path d="M6.613 28.035c-.73 0-1.32-.59-1.32-1.324v-2.645h21.168v2.645a1.32 1.32 0 0 1-1.324 1.324zm0 0" fill="url(#f)"/><path d="M6.613 27.953c-.73 0-1.32-.594-1.32-1.324v-.168c0 .734.59 1.324 1.32 1.324h18.524a1.32 1.32 0 0 0 1.324-1.324v.168c0 .73-.59 1.324-1.324 1.324zm0 0" fill-opacity=".235"/><path d="M6.613 28.035c-.73 0-1.32-.59-1.32-1.324v-2.645h21.168v2.645a1.32 1.32 0 0 1-1.324 1.324zm0 0" fill="none" stroke-width=".18752999999999997" stroke-linecap="round" stroke="#212121"/><path d="M3.309 2.895h25.136c.73 0 1.325.593 1.325 1.324v19.183c0 .73-.594 1.325-1.325 1.325H3.31c-.73 0-1.325-.594-1.325-1.325V4.22c0-.73.594-1.324 1.325-1.324zm0 0" fill="url(#g)"/><path d="M391.588-212.334c5.812 0 10.561 4.75 10.561 10.561 0 5.875-4.75 10.624-10.561 10.624-5.875 0-10.562-4.75-10.562-10.624 0-5.812 4.687-10.561 10.562-10.561zm0 0" transform="matrix(.0625 0 0 -.0625 0 13.439)" fill="url(#h)" stroke-width="3" stroke-linecap="round" stroke="#212121"/><path d="M3.309 2.895a1.32 1.32 0 0 0-1.325 1.324v.402c0-.73.59-1.32 1.325-1.32h25.136c.735 0 1.325.59 1.325 1.32V4.22a1.32 1.32 0 0 0-1.325-1.324zm0 0" fill="#fff" fill-opacity=".392"/><path d="M1.984 22.96v.442c0 .735.59 1.325 1.325 1.325h25.136a1.32 1.32 0 0 0 1.325-1.325v-.441c0 .73-.59 1.32-1.325 1.32H3.31a1.32 1.32 0 0 1-1.325-1.32zm0 0" fill-opacity=".235"/><path d="M3.309 2.8c-.786 0-1.418.638-1.418 1.419v19.183c0 .785.632 1.418 1.418 1.418h25.136c.785 0 1.418-.633 1.418-1.418V4.22c0-.782-.633-1.418-1.418-1.418zm0 .188h25.136c.684 0 1.23.547 1.23 1.23v19.184c0 .684-.546 1.23-1.23 1.23H3.31c-.684 0-1.23-.546-1.23-1.23V4.22c0-.684.546-1.23 1.23-1.23zm0 0"/></svg>
